packages/katcn/src/icons/svg/notebook.svg

<svg width="24" height="24" viewBox="0 0 24 24" fill="none" xmlns="http://www.w3.org/2000/svg">
<path d="M17.4 1H8.4C6.8 1 5.2 1.90826 4.4 3.3211C4.1 3.82569 4.3 4.43119 4.8 4.73395C5.3 5.0367 5.9 4.83486 6.2 4.33028C6.6 3.52294 7.5 3.01835 8.4 3.01835H17.4C18.8 3.01835 20 4.22936 20 5.6422V17.4495V18.3578C20 19.7706 18.8 20.9817 17.4 20.9817H8.4C7 20.9817 5.8 19.7706 5.8 18.3578V18.055H6.6C7.2 18.055 7.6 17.6514 7.6 17.0459C7.6 16.4404 7.2 16.0367 6.6 16.0367H3C2.4 16.0367 2 16.4404 2 17.0459C2 17.6514 2.4 18.055 3 18.055H3.8V18.3578C3.8 20.8807 5.9 23 8.4 23H17.4C19.9 23 22 20.8807 22 18.3578V17.4495V5.6422C22 3.11927 19.9 1 17.4 1Z" fill="black"/>
<path d="M3.07143 8H3.92857V14C3.92857 14.6 4.35714 15 5 15C5.64286 15 6.07143 14.6 6.07143 14V8H6.92857C7.57143 8 8 7.6 8 7C8 6.4 7.57143 6 6.92857 6H3.07143C2.42857 6 2 6.4 2 7C2 7.6 2.42857 8 3.07143 8Z" fill="black"/>
</svg>

<svg xmlns="http://www.w3.org/2000/svg" fill="none" viewBox="0 0 24 24"><path fill="#000" d="M17.4 1h-9c-1.6 0-3.2.908-4 2.321-.3.505-.1 1.11.4 1.413s1.1.1 1.4-.404c.4-.807 1.3-1.312 2.2-1.312h9c1.4 0 2.6 1.211 2.6 2.624v12.716c0 1.413-1.2 2.624-2.6 2.624h-9c-1.4 0-2.6-1.211-2.6-2.624v-.303h.8c.6 0 1-.404 1-1.01 0-.605-.4-1.008-1-1.008H3c-.6 0-1 .403-1 1.009s.4 1.009 1 1.009h.8v.303C3.8 20.88 5.9 23 8.4 23h9c2.5 0 4.6-2.12 4.6-4.642V5.642C22 3.12 19.9 1 17.4 1"/><path fill="#000" d="M3.071 8h.858v6c0 .6.428 1 1.071 1s1.071-.4 1.071-1V8h.858C7.57 8 8 7.6 8 7s-.429-1-1.071-1H3.07C2.43 6 2 6.4 2 7s.429 1 1.071 1"/></svg>
